X: 20800
T: Johnny Micky's
R: slide
M: 12/8
K: Dmajor
D2 A A2 G E2 F G2 B|ABA G2 E ABA G2 E|D2 A A2 G E2 F G2 B|ABA GFE D6:|
d2 c A2 G E2 F G2 B|ABA G2 E ABA G2 E|d2 c A2 G E2 F G2 B|ABA GFE D6:|

